source/images/icons/codepen.svg

<?xml version="1.0" encoding="UTF-8" standalone="no"?>
<svg width="30px" height="30px" viewBox="0 0 30 30" version="1.1" xmlns="http://www.w3.org/2000/svg" xmlns:xlink="http://www.w3.org/1999/xlink">
    <!-- Generator: Sketch 39.1 (31720) - http://www.bohemiancoding.com/sketch -->
    <title>codepen</title>
    <desc>Created with Sketch.</desc>
    <defs></defs>
    <g id="Speakers" stroke="none" stroke-width="1" fill="none" fill-rule="evenodd">
        <g id="codepen" fill="#0D41C2">
            <polygon id="Fill-1" points="7.33868354 13.6498734 7.33868354 16.3125949 9.32918987 14.9812658"></polygon>
            <polygon id="Fill-2" points="14.2090127 11.7171139 14.2090127 8.00648101 7.97565823 12.1617342 10.7600886 14.0243924"></polygon>
            <polygon id="Fill-3" points="22.0336013 12.1617278 15.8001835 8.00647468 15.8001835 11.7171076 19.2493608 14.0243861"></polygon>
            <polygon id="Fill-4" points="7.97563924 17.8007595 14.2089937 21.9560127 14.2089937 18.2453165 10.7601329 15.9386076"></polygon>
            <polygon id="Fill-5" points="15.8001646 18.2453418 15.8001646 21.956038 22.0335823 17.8007848 19.2493418 15.9386329"></polygon>
            <polygon id="Fill-6" points="15.0045127 13.0991329 12.1907785 14.9812215 15.0045127 16.8633734 17.8184367 14.9812215"></polygon>
            <path d="M24.261462,17.8017468 C24.261462,17.8368101 24.2589937,17.8713671 24.2543734,17.9059241 C24.2526646,17.9171266 24.249943,17.9288354 24.2480443,17.940038 C24.2439304,17.962443 24.2400063,17.9848481 24.2341203,18.0067468 C24.2307658,18.0199114 24.2258924,18.0325063 24.2217152,18.0452278 C24.2153861,18.0646582 24.2091203,18.0842152 24.2013354,18.1037089 C24.1959557,18.1168101 24.1893101,18.1294684 24.1835506,18.1421266 C24.1750063,18.1601646 24.1662089,18.1776329 24.1565253,18.1952278 C24.1493734,18.2073797 24.1413987,18.2195949 24.1338038,18.2317468 C24.1231076,18.2483291 24.1122215,18.2644051 24.1002595,18.2799747 C24.091462,18.2921266 24.0824747,18.3033291 24.0727911,18.3145316 C24.0603228,18.3290886 24.0471582,18.3437089 24.0332975,18.3573165 C24.0227911,18.3680759 24.012538,18.3787722 24.0016519,18.388519 C23.9872848,18.4016835 23.9719684,18.4143418 23.9563987,18.4264937 C23.9446266,18.4357975 23.932981,18.445038 23.9205127,18.4537722 C23.9159557,18.4567468 23.9118418,18.4606076 23.9071582,18.463519 L15.4459557,24.1045316 C15.3122848,24.1936456 15.1586139,24.2383924 15.0045,24.2383924 C14.8508924,24.2383924 14.6969684,24.1936456 14.5632975,24.1045316 L6.10184177,18.463519 C6.09741139,18.4606076 6.09329747,18.4567468 6.08893038,18.4537722 C6.07646203,18.445038 6.06456329,18.4357975 6.05285443,18.4264937 C6.03728481,18.4143418 6.02215823,18.4016835 6.00779114,18.388519 C5.99684177,18.3787722 5.98639873,18.3680759 5.97589241,18.3573165 C5.96203165,18.3437089 5.94918354,18.3290886 5.93620886,18.3145316 C5.92696835,18.3033291 5.91772785,18.2921266 5.90899367,18.2799747 C5.89728481,18.2644051 5.88608228,18.2483291 5.87557595,18.2317468 C5.86753797,18.2195949 5.86000633,18.2073797 5.85272785,18.1952278 C5.84298101,18.1776329 5.83424684,18.1601646 5.82570253,18.1421266 C5.81962658,18.1294684 5.81348734,18.1168101 5.80791772,18.1037089 C5.80013291,18.0842152 5.79355063,18.0646582 5.78747468,18.0452278 C5.78310759,18.0325063 5.77874051,18.0199114 5.77506962,18.0067468 C5.76918354,17.9848481 5.76532278,17.962443 5.76114557,17.940038 C5.75924684,17.9288354 5.75633544,17.9171266 5.75481646,17.9059241 C5.7501962,17.8713671 5.74753797,17.8368101 5.74753797,17.8017468 L5.74753797,12.1607342 C5.74753797,12.1256709 5.7501962,12.0911139 5.75481646,12.057 C5.75633544,12.0453544 5.75924684,12.0341519 5.76114557,12.022443 C5.76532278,12.000038 5.76918354,11.9776329 5.77506962,11.9557342 C5.77874051,11.9425696 5.78310759,11.9299114 5.78747468,11.9172532 C5.79355063,11.8977595 5.80013291,11.8783291 5.80791772,11.8592785 C5.81348734,11.8461772 5.81962658,11.8330127 5.82570253,11.8203544 C5.83424684,11.8023165 5.84298101,11.7847848 5.85272785,11.7677595 C5.86000633,11.7551013 5.86753797,11.7429494 5.87557595,11.7307342 C5.88608228,11.7142152 5.89728481,11.6981392 5.90899367,11.6825063 C5.91772785,11.6708608 5.92696835,11.6591519 5.93620886,11.6480127 C5.94918354,11.6333924 5.96203165,11.6187722 5.97589241,11.6051013 C5.98639873,11.5944051 5.99684177,11.5837089 6.00779114,11.573962 C6.02215823,11.5607975 6.03728481,11.5481392 6.05285443,11.5359241 C6.06456329,11.5266835 6.07646203,11.517443 6.08893038,11.5087089 C6.09329747,11.5057342 6.09741139,11.5018734 6.10184177,11.498962 L14.5632975,5.85794937 C14.8306392,5.67972152 15.1785506,5.67972152 15.4459557,5.85794937 L23.9071582,11.498962 C23.9118418,11.5018734 23.9159557,11.5057342 23.9205127,11.5087089 C23.932981,11.517443 23.9446266,11.5266835 23.9563987,11.5359241 C23.9719684,11.5481392 23.9872848,11.5607975 24.0016519,11.573962 C24.012538,11.5837089 24.0227911,11.5944051 24.0332975,11.6051013 C24.0471582,11.6187722 24.0603228,11.6333924 24.0727911,11.6480127 C24.0824747,11.6591519 24.091462,11.6708608 24.1002595,11.6825063 C24.1122215,11.6981392 24.1231076,11.7142152 24.1338038,11.7307342 C24.1413987,11.7429494 24.1493734,11.7551013 24.1565253,11.7677595 C24.1662089,11.7847848 24.1750063,11.8023165 24.1835506,11.8203544 C24.1893101,11.8330127 24.1959557,11.8461772 24.2013354,11.8592785 C24.2091203,11.8783291 24.2153861,11.8977595 24.2217152,11.9172532 C24.2258924,11.9299114 24.2307658,11.9425696 24.2341203,11.9557342 C24.2400063,11.9776329 24.2439304,12.000038 24.2480443,12.022443 C24.249943,12.0341519 24.2526646,12.0453544 24.2543734,12.057 C24.2589937,12.0911139 24.261462,12.1256709 24.261462,12.1607342 L24.261462,17.8017468 Z M15.0045,0.00978481013 C6.73633544,0.00978481013 0.0332341772,6.71263291 0.0332341772,14.9812405 C0.0332341772,23.2499114 6.73633544,29.952443 15.0045,29.952443 C23.2731709,29.952443 29.9759557,23.2499114 29.9759557,14.9812405 C29.9759557,6.71263291 23.2731709,0.00978481013 15.0045,0.00978481013 L15.0045,0.00978481013 Z" id="Fill-7"></path>
            <polygon id="Fill-9" points="22.6705253 16.3126139 22.6705253 13.6498924 20.6803354 14.9812215"></polygon>
        </g>
    </g>
</svg>

<svg width="30" height="30" viewBox="0 0 30 30" xmlns="http://www.w3.org/2000/svg"><title>codepen</title><g fill="#0D41C2" fill-rule="evenodd"><path d="M7.339 13.65v2.663l1.99-1.332zM14.209 11.717v-3.71l-6.233 4.155 2.784 1.862zM22.034 12.162L15.8 8.006v3.711l3.45 2.307zM7.976 17.8l6.233 4.156v-3.71l-3.449-2.307zM15.8 18.245v3.711l6.234-4.155-2.785-1.862zM15.005 13.1L12.19 14.98l2.814 1.882 2.813-1.882z"/><path d="M24.261 17.802c0 .035-.002.07-.007.104l-.006.034c-.004.022-.008.045-.014.067-.003.013-.008.026-.012.038l-.02.059c-.006.013-.013.025-.018.038a.973.973 0 0 1-.027.053l-.023.037a.712.712 0 0 1-.1.125l-.032.032a.751.751 0 0 1-.046.037l-.035.028-.014.01-8.461 5.64a.795.795 0 0 1-.883 0l-8.461-5.64-.013-.01a.747.747 0 0 1-.081-.065c-.011-.01-.022-.02-.032-.032-.014-.013-.027-.028-.04-.042a.655.655 0 0 1-.06-.083.96.96 0 0 1-.05-.09c-.006-.013-.013-.025-.018-.038a.804.804 0 0 1-.02-.059c-.005-.012-.01-.025-.013-.038-.006-.022-.01-.045-.014-.067l-.006-.034a.784.784 0 0 1-.007-.104V12.16c0-.035.002-.07.007-.104.001-.012.004-.023.006-.035a.666.666 0 0 1 .026-.105.716.716 0 0 1 .15-.269c.012-.015.025-.03.039-.043.01-.01.02-.021.032-.031a.772.772 0 0 1 .08-.065l.014-.01 8.461-5.641a.795.795 0 0 1 .883 0l8.461 5.641.014.01.035.027.046.038.031.031a.68.68 0 0 1 .1.126l.024.037a.79.79 0 0 1 .027.052l.017.04c.008.018.014.038.02.057.005.013.01.026.013.039.006.022.01.044.014.066.002.012.005.023.006.035a.772.772 0 0 1 .007.104v5.64zM15.005.01C6.736.01.033 6.713.033 14.98c0 8.269 6.703 14.971 14.972 14.971 8.268 0 14.971-6.702 14.971-14.97C29.976 6.711 23.273.01 15.005.01z"/><path d="M22.67 16.313V13.65l-1.99 1.331z"/></g></svg>
